app/[lang]/(home)/(new-home)/assets/db-appicons/mysqlicon.svg

<svg
  width="49"
  height="49"
  viewBox="0 0 49 49"
  fill="none"
  xmlns="http://www.w3.org/2000/svg"
>
  <path
    d="M42.4551 36.0996C40.1683 36.0373 38.422 36.2502 36.9289 36.8796C36.5048 37.0585 35.8277 37.0635 35.7584 37.595C35.9917 37.8392 36.028 38.2044 36.2132 38.5049C36.5698 39.0814 37.1715 39.8551 37.7086 40.2602C38.2957 40.7034 38.9005 41.1769 39.5296 41.5604C40.6485 42.2425 41.8976 42.6323 42.9749 43.3157C43.6099 43.7189 44.2407 44.2263 44.8601 44.6808C45.1666 44.9057 45.3722 45.2553 45.7704 45.3962V45.3316C45.5611 45.065 45.5072 44.6991 45.3152 44.4209L44.4699 43.5756C43.6436 42.4787 42.5943 41.5151 41.4791 40.7151C40.5898 40.0767 38.5996 39.2143 38.2288 38.1797L38.1638 38.1148C38.7942 38.0435 39.5322 37.8156 40.1143 37.6593C41.0919 37.3974 41.9656 37.465 42.9749 37.2045L44.34 36.8143V36.5544C43.8298 36.0309 43.466 35.3379 42.9099 34.8641C41.4538 33.6246 39.8651 32.386 38.2291 31.3531C37.3215 30.7807 36.2002 30.4085 35.2383 29.923C34.9148 29.7594 34.3463 29.6745 34.1327 29.4026C33.6273 28.7588 33.3524 27.9425 32.9629 27.1925C32.1469 25.6207 31.3455 23.9044 30.6225 22.2508C30.1293 21.1232 29.8071 20.0116 29.192 19C26.2399 14.1463 23.0625 11.2172 18.1401 8.33763C17.0926 7.72521 15.8314 7.48364 14.4986 7.1671C13.7839 7.12411 13.0685 7.08047 12.3535 7.03682C11.9166 6.85489 11.4628 6.32077 11.0533 6.06154C9.42264 5.03128 5.23965 2.79051 4.03214 5.73667C3.26945 7.59626 5.17202 9.4102 5.85208 10.3528C6.32988 11.0132 6.94131 11.7546 7.2825 12.498C7.50708 12.9868 7.54573 13.4769 7.73799 13.9937C8.21013 15.2672 8.62163 16.6527 9.23305 17.8292C9.54193 18.4249 9.88246 19.052 10.2733 19.5845C10.5125 19.9114 10.9234 20.0553 10.988 20.5598C10.5868 21.1215 10.5639 21.9939 10.3383 22.7056C9.32202 25.9093 9.70553 29.8917 11.1836 32.2628C11.6368 32.9911 12.7053 34.5522 14.1741 33.9531C15.4589 33.43 15.172 31.8079 15.5395 30.3772C15.6225 30.053 15.5715 29.8144 15.7344 29.5972V29.6621L16.905 32.0025C17.7713 33.3976 19.308 34.8554 20.6108 35.839C21.2862 36.3491 21.818 37.2308 22.6913 37.5293V37.464H22.6263C22.4571 37.2005 22.1922 37.0912 21.9763 36.8793C21.4675 36.3805 20.9017 35.7604 20.4812 35.1889C19.2963 33.5806 18.2494 31.8203 17.2955 29.988C16.8397 29.1127 16.4435 28.1477 16.0596 27.2571C15.9117 26.9139 15.9137 26.3944 15.6052 26.2168C15.1843 26.8692 14.5649 27.397 14.2397 28.1674C13.7196 29.3989 13.6526 30.901 13.4597 32.4584C13.3457 32.499 13.3964 32.471 13.3294 32.523C12.4238 32.3047 12.1059 31.3728 11.769 30.5728C10.918 28.5502 10.7598 25.2942 11.5088 22.9661C11.7027 22.3634 12.5784 20.4668 12.2239 19.91C12.0546 19.3549 11.4961 19.0337 11.1839 18.6095C10.7971 18.0851 10.4112 17.3947 10.143 16.7889C9.44663 15.2126 9.12143 13.4423 8.38806 11.8482C8.0372 11.0862 7.44444 10.3148 6.95763 9.63778C6.41885 8.88708 5.81509 8.3343 5.39726 7.42699C5.24865 7.10446 5.04707 6.58799 5.26698 6.25646C5.33695 6.03288 5.43624 5.93959 5.65715 5.86662C6.03434 5.57573 7.08458 5.96324 7.47709 6.12618C8.51967 6.55934 9.38999 6.97184 10.2733 7.55694C10.6968 7.83816 11.126 8.38161 11.6384 8.53222H12.2235C13.1388 8.74247 14.1641 8.59719 15.0194 8.85709C16.5308 9.31624 17.8852 10.031 19.1151 10.8076C22.8623 13.174 25.9264 16.542 28.0222 20.5601C28.3594 21.2072 28.5053 21.8243 28.8022 22.5107C29.4013 23.8944 30.156 25.3182 30.7521 26.6717C31.3472 28.0218 31.9269 29.3842 32.7679 30.5078C33.2101 31.0982 34.9174 31.4151 35.6938 31.7433C36.2376 31.9729 37.1289 32.2128 37.6443 32.523C38.6283 33.1168 39.5819 33.8235 40.5052 34.4739C40.966 34.7988 42.3844 35.5121 42.4551 36.0996ZM13.3937 11.3291C12.9169 11.3201 12.5797 11.3811 12.2232 11.4587V11.5237H12.2882C12.5157 11.9908 12.9172 12.2921 13.1981 12.6942C13.4147 13.1497 13.6316 13.6045 13.8485 14.0594L13.9132 13.995C14.316 13.7108 14.5003 13.2573 14.4979 12.5643C14.3367 12.3947 14.313 12.1821 14.1731 11.9795C13.9878 11.7093 13.6283 11.5557 13.3937 11.3291Z"
    fill="#0080B7"
  />
</svg>

<svg xmlns="http://www.w3.org/2000/svg" fill="none" viewBox="0 0 49 49">
  <path
    fill="#0080B7"
    d="M42.46 36.1c-2.3-.06-4.04.15-5.53.78-.43.18-1.1.18-1.17.71.23.25.27.61.45.91.36.58.96 1.36 1.5 1.76.59.44 1.2.92 1.82 1.3 1.12.68 2.37 1.07 3.44 1.76.64.4 1.27.9 1.89 1.36.3.23.51.58.91.72v-.07c-.2-.27-.26-.63-.45-.9l-.85-.85a13.86 13.86 0 0 0-3-2.86c-.88-.64-2.87-1.5-3.24-2.54l-.07-.07c.63-.07 1.37-.3 1.95-.45.98-.26 1.86-.2 2.86-.46l1.37-.39v-.26c-.51-.52-.87-1.21-1.43-1.69a41.82 41.82 0 0 0-4.68-3.5c-.9-.58-2.03-.95-3-1.44-.32-.16-.88-.25-1.1-.52-.5-.64-.78-1.46-1.17-2.2a83.72 83.72 0 0 1-2.34-4.95c-.5-1.13-.81-2.24-1.43-3.25-2.95-4.85-6.13-7.78-11.05-10.66-1.05-.61-2.3-.86-3.64-1.17l-2.15-.13c-.43-.19-.89-.72-1.3-.98-1.63-1.03-5.81-3.27-7.02-.32-.76 1.86 1.14 3.67 1.82 4.61.48.66 1.1 1.4 1.43 2.15.23.49.27.98.46 1.5.47 1.27.88 2.65 1.5 3.83.3.6.64 1.22 1.03 1.75.24.33.65.48.72.98-.4.56-.43 1.43-.65 2.15-1.02 3.2-.63 7.18.84 9.55.46.73 1.53 2.3 3 1.7 1.28-.53 1-2.15 1.36-3.58.08-.33.03-.57.2-.78v.06L16.9 32c.86 1.4 2.4 2.86 3.7 3.84.68.5 1.2 1.4 2.08 1.69v-.07h-.06c-.17-.26-.44-.37-.65-.58-.51-.5-1.08-1.12-1.5-1.7a39.55 39.55 0 0 1-3.18-5.2c-.46-.87-.86-1.83-1.24-2.72-.15-.35-.15-.87-.45-1.04-.43.65-1.05 1.18-1.37 1.95-.52 1.23-.59 2.73-.78 4.29-.11.04-.06.01-.13.06-.9-.22-1.22-1.15-1.56-1.95a12.3 12.3 0 0 1-.26-7.6c.2-.6 1.07-2.5.71-3.06-.17-.56-.72-.88-1.04-1.3-.38-.52-.77-1.22-1.04-1.82-.7-1.58-1.02-3.35-1.75-4.94-.35-.76-.95-1.54-1.43-2.21-.54-.75-1.14-1.3-1.56-2.21-.15-.33-.35-.84-.13-1.17.07-.23.17-.32.39-.4.37-.28 1.42.1 1.82.27 1.04.43 1.91.84 2.8 1.43.42.28.85.82 1.36.97h.58c.92.21 1.94.07 2.8.33a16.9 16.9 0 0 1 4.1 1.95 25.36 25.36 0 0 1 8.9 9.75c.34.65.49 1.26.78 1.95.6 1.38 1.36 2.8 1.95 4.16.6 1.35 1.18 2.71 2.02 3.84.44.59 2.15.9 2.92 1.23.55.23 1.44.47 1.95.78.99.6 1.94 1.3 2.87 1.95.46.33 1.87 1.04 1.95 1.63ZM13.39 11.33c-.47-.01-.81.05-1.17.13v.06h.07c.23.47.63.77.9 1.17l.66 1.37.06-.07c.4-.28.59-.73.59-1.43-.16-.17-.19-.38-.33-.58-.18-.27-.54-.42-.78-.65Z"
  />
</svg>
